svg/300/outlined/add_card-fill.svg

<svg xmlns="http://www.w3.org/2000/svg" width="48" height="48" viewBox="0 -960 960 960"><path d="M145.385-511.385h669.23v-112.46h-669.23v112.46ZM784.616-90.001v-120h-120v-45.383h120v-120h45.383v120h120v45.383h-120v120h-45.383Zm-626.922-90q-23.529 0-40.611-17.082-17.082-17.082-17.082-40.611v-484.612q0-23.529 17.082-40.611 17.082-17.082 40.611-17.082h644.612q23.529 0 40.611 17.082 17.082 17.082 17.082 40.611v281.537h-75.383q-76.935 0-131.16 54.225-54.225 54.225-54.225 131.16v75.383H157.694Z"/></svg>

<svg xmlns="http://www.w3.org/2000/svg" width="48" height="48" viewBox="0 -960 960 960"><path d="M145.39-511.39h669.22v-112.45H145.39v112.45ZM784.62-90v-120h-120v-45.38h120v-120H830v120h120V-210H830v120h-45.38Zm-626.93-90q-23.53 0-40.61-17.08T100-237.69v-484.62q0-23.53 17.08-40.61T157.69-780h644.62q23.53 0 40.61 17.08T860-722.31v281.54h-75.38q-76.94 0-131.16 54.23-54.23 54.22-54.23 131.16V-180H157.69Z"/></svg>
